src/img/content/icons/texture-natural.svg

<svg width="47" height="48" viewBox="0 0 47 48" fill="none" xmlns="http://www.w3.org/2000/svg">
<path d="M34.8616 26.8926C36.4471 25.7841 37.7212 24.2293 38.6413 22.5018C39.5756 20.7454 40.0711 18.7731 40.0569 16.7865C40.0145 14.8142 39.1509 12.9859 38.0751 11.4023C36.8859 9.67471 35.4845 8.04793 33.5875 7.06899C31.5773 6.04685 29.199 6.16202 27.0614 6.6227C24.754 7.09778 22.404 7.48648 20.2947 8.59499C18.3553 9.63152 16.8406 11.3303 15.4108 13.0002C14.0093 14.627 12.6645 16.3546 10.9515 17.6502C8.81394 19.2194 6.77543 20.6303 4.19898 21.3357C3.37791 21.5372 3.5761 22.8329 4.42548 22.8185C6.76127 22.7753 8.85641 22.257 10.8949 21.0766C12.6361 20.0544 14.1509 18.7875 15.5382 17.3047C17.9165 14.7854 20.1673 11.2151 23.6215 10.193C24.6124 9.89066 25.6883 9.74669 26.7075 9.47316C27.84 9.18524 29.0009 8.85412 30.1617 8.73895C32.2851 8.52301 33.9556 9.91945 35.258 11.4598C36.4754 12.9139 37.1124 14.4543 37.1407 16.369C37.1549 18.1397 36.6453 19.8529 35.8101 21.3933C33.9273 24.7476 30.3032 25.7985 27.1039 27.4397C23.2109 29.4408 18.9074 30.8804 14.5473 31.1395C14.0659 31.1827 13.712 31.4707 13.5563 31.9457C12.7494 34.3643 14.9719 35.9335 16.8123 36.9412C17.7183 37.4307 18.6526 37.8482 19.5161 38.424C20.6062 39.1583 21.5971 40.0652 22.5173 41.0154C24.3434 42.8437 25.8865 44.816 27.3021 46.9754C27.4012 47.1338 27.5003 47.2778 27.5994 47.4361C28.4488 47.2778 29.2698 47.0906 30.0767 46.8459C29.737 46.342 29.4114 45.8237 29.1 45.3055C27.84 43.1892 26.6226 41.001 24.9663 39.2015C23.3666 37.4883 21.4838 35.9767 19.3887 34.9114C18.511 34.4651 17.6475 34.0332 16.8406 33.4717C16.699 33.3854 16.5433 33.2558 16.4017 33.0974C20.6486 32.5648 24.5982 30.9956 28.6186 29.5272C30.6855 28.7642 33.0496 28.1739 34.8616 26.8926Z" fill="#FEC700"/>
<path d="M11.5799 25.785C10.8862 26.2169 10.235 26.6488 9.45642 26.8791C8.63536 27.1239 7.68688 26.9943 6.85166 26.8791C4.88393 26.6344 2.93036 26.4472 0.976786 26.1737C0.679504 26.1449 0.396377 26.1017 0.0990938 26.0585C0.127406 26.4616 0.184032 26.8647 0.226501 27.2534C1.24576 27.4118 2.25086 27.5846 3.2418 27.8293C4.50171 28.1316 5.83241 28.2324 7.10647 28.4339C8.19651 28.6067 9.25823 28.5059 10.3483 28.2756C12.6416 27.8005 14.7084 26.7496 16.9876 26.2313C19.3234 25.7418 21.73 25.6411 24.0941 25.3675C27.8313 24.95 31.7951 24.1726 34.5981 21.4517C37.3869 18.7452 36.0703 14.5415 33.3948 12.3101C32.0924 11.2304 30.7192 10.6401 29.0063 10.7841C27.5199 10.8993 26.0759 11.3744 24.7311 12.0222C21.9281 13.3898 19.833 15.9524 17.5963 18.0542C15.1331 20.3864 12.5991 22.4595 9.24408 23.2225C6.24294 23.8847 3.10023 23.8559 0 23.7551C0 23.8127 0 23.8559 0 23.9135C0 24.4462 0.0141558 24.9644 0.0424684 25.4827C1.37316 25.785 2.6897 26.0441 4.00624 26.1737C6.51191 26.4185 9.03173 26.0298 11.3675 25.0508C13.2362 24.2446 14.8783 23.2513 16.4213 21.9124C17.8511 20.7031 19.0827 19.2635 20.3993 17.9534C22.8766 15.4341 25.8211 12.5261 29.5159 12.2957C33.4797 12.0654 36.7923 17.3056 33.9327 20.5016C32.1915 22.4595 29.1762 23.3952 26.6847 23.7263C23.2588 24.187 19.7905 23.4384 16.3647 23.9711C14.5952 24.2158 13.0946 24.8205 11.5799 25.785Z" fill="#FEC700"/>
<path d="M29.1205 20.1551C26.2043 21.6811 22.8492 21.6235 19.6782 21.8251C19.3668 21.8394 19.2677 22.3577 19.6074 22.4009C21.8017 22.6888 24.0384 22.8904 26.2467 22.5017C28.1012 22.185 30.2388 21.5947 31.6545 20.2703C32.9002 19.1186 33.424 16.9591 32.702 15.3899C32.0225 13.9215 29.9132 13.5904 28.5118 13.5472C26.3742 13.4896 25.0718 14.9292 23.5287 16.1673C22.7077 16.8296 19.933 18.7587 21.5893 20.0111C22.0423 20.3278 22.736 20.3422 23.2598 20.3278C24.2507 20.3278 25.27 20.1551 26.2467 19.9247C27.3651 19.6656 29.9274 18.6579 29.7292 17.1607C29.6726 16.8008 29.2337 16.6136 29.0355 16.9735C28.3985 18.154 27.1528 18.5859 25.9353 18.8882C25.1284 19.0754 24.3073 19.133 23.4863 19.1761C23.3022 19.1905 23.1182 19.1761 22.92 19.1617C22.8775 19.1617 22.8351 19.1617 22.7784 19.1617C23.104 18.8306 23.6703 18.5715 24.01 18.3556C24.548 18.0244 25.0435 17.6933 25.5248 17.2902C26.6148 16.3977 27.6765 15.793 29.0639 15.6779C30.0548 15.5771 31.3006 15.6635 31.343 16.9159C31.3996 18.4131 30.3238 19.5217 29.1205 20.1551Z" fill="#FEC700"/>
<path d="M2.2007 30.2324C4.28168 31.1249 6.51837 31.672 8.79754 31.7872C9.85927 31.8592 10.9918 31.8448 12.0393 31.6432C13.3417 31.3841 14.5875 30.7506 15.8049 30.2324C16.9657 29.7285 18.0982 29.2822 19.3015 28.9223C20.4907 28.5768 21.6373 28.2889 22.7274 27.6698C23.0388 27.4827 22.8972 27.0796 22.6141 26.95C21.6515 26.5613 20.4482 26.9932 19.4573 27.238C18.254 27.5403 17.0365 28.0298 15.8049 28.2025C14.6016 28.3897 13.4267 28.7064 12.2517 29.1095C11.1333 29.4694 10.2698 30.0308 9.05236 30.074C6.81566 30.146 4.59312 29.4262 2.44135 28.9079C1.77601 28.7496 1.11066 28.62 0.445312 28.5336C0.516094 28.8935 0.601032 29.2534 0.685969 29.6277C1.18144 29.8005 1.69107 30.002 2.2007 30.2324Z" fill="#FEC700"/>
<path d="M4.96777 33.9174C6.02949 34.0758 7.10537 34.1766 8.15294 34.3925C9.3987 34.6804 10.2339 35.2851 11.1116 36.2065C11.9468 37.099 12.8104 37.862 13.5182 38.8698C14.2543 39.9495 15.1745 40.4677 16.3495 40.9716C17.3546 41.3891 18.3597 41.7346 19.2798 42.3393C20.1575 42.9151 20.9786 43.8365 21.6298 44.6858C21.927 45.0602 22.6632 44.8442 22.465 44.3115C21.6298 42.1809 20.2283 40.6693 18.1332 39.8199C16.9582 39.3592 15.5284 39.1865 14.7639 38.0924C13.9853 36.9982 13.2351 35.8609 12.4282 34.7812C10.8143 32.6074 8.37944 32.3339 5.85962 32.4058C4.48646 32.4346 3.22654 32.1899 1.85338 31.974C1.6835 31.9452 1.51363 31.9164 1.34375 31.8876C1.49947 32.3195 1.65519 32.7657 1.83922 33.1976C2.87263 33.4712 3.90604 33.7303 4.96777 33.9174Z" fill="#FEC700"/>
<path d="M33.1698 45.693C32.0656 44.239 31.1313 42.641 30.5226 40.9423C29.8431 38.97 29.2768 36.7817 27.8612 35.1981C27.2242 34.4927 26.3748 34.0177 25.4829 33.7297C28.2576 33.2834 31.0039 32.65 33.7078 31.6711C37.5441 30.3178 40.6727 26.9491 42.3714 23.278C43.3199 21.277 43.7163 19.2327 43.9003 17.0301C44.0844 14.9282 43.5606 12.9847 42.6546 11.1132C41.0124 7.70129 38.0113 5.26832 34.4156 4.31816C31.3295 3.46878 28.0169 3.94386 24.945 4.63488C21.2785 5.45547 17.9235 7.29819 15.1205 9.80314C13.7615 11.0124 12.5724 12.3369 11.1426 13.4454C9.7128 14.5395 8.1556 15.4321 6.55594 16.2239C4.97043 17.0013 3.25752 17.5195 1.5446 17.9802C1.26147 18.081 0.964191 18.153 0.666908 18.2394C0.539501 18.7288 0.440407 19.2471 0.355469 19.751C1.17654 19.679 1.96929 19.535 2.7762 19.3911C4.89965 18.9736 6.99479 18.0378 8.87758 17.0013C10.8595 15.9072 12.6573 14.5251 14.2994 12.9847C16.069 11.3435 17.2581 9.08333 19.3108 7.80206C21.4059 6.47761 24.0248 5.93055 26.4031 5.51305C28.5407 5.15315 30.6217 5.05237 32.7593 5.38349C36.6098 5.97373 39.6959 8.33472 41.4938 11.8042C42.8952 14.5107 42.7961 17.3756 41.6353 20.1253C40.517 22.803 38.9739 25.3079 37.0628 27.4818C35.2367 29.4972 32.5894 30.8649 30.0554 31.6567C27.3657 32.5061 24.4495 32.8516 21.6466 32.9091C20.9246 32.9235 20.7264 34.1184 21.4909 34.2336C22.0571 34.3344 22.6092 34.4495 23.1472 34.6223C23.9116 34.867 24.3221 35.3133 24.945 35.7596C25.6811 36.2779 26.2757 36.8681 26.6862 37.6743C27.1675 38.6101 27.479 39.6466 27.9603 40.5967C28.4982 41.6333 29.0362 42.6986 29.6024 43.7351C30.0979 44.6565 30.65 45.5779 31.3153 46.456C31.9524 46.2113 32.5611 45.9666 33.1698 45.693Z" fill="#FEC700"/>
<path d="M6.64299 40.5676C7.73303 41.7049 8.93632 42.7271 10.2245 43.634C10.7483 43.6484 11.258 43.6484 11.7676 43.6772C12.5179 43.706 13.438 43.706 14.2874 43.85C14.613 43.9796 14.9386 44.1379 15.25 44.2963C16.4109 44.9153 17.5009 45.6783 18.6617 46.3117C19.5394 46.758 20.4313 47.2619 21.3231 47.7082C22.0451 47.7658 22.7812 47.809 23.5032 47.809C23.6447 47.809 23.8005 47.809 23.942 47.7946C23.8005 47.6218 23.6164 47.4491 23.4466 47.2763C22.4415 46.3117 21.2382 45.7215 20.0066 45.0881C18.8316 44.4834 17.7132 43.7636 16.5807 43.0726C15.3774 42.3528 14.0326 41.8777 12.8435 41.1579C12.0224 40.6252 11.4561 39.5887 10.7483 38.9121C9.75738 37.9619 8.65319 37.1413 7.50653 36.4071C6.40233 35.6873 5.08579 35.4282 3.82588 35.1978C3.47197 35.1402 3.11806 35.1259 2.75 35.1259C3.01897 35.6153 3.28794 36.0904 3.58522 36.5799C3.92497 36.7094 4.26473 36.8822 4.57617 37.1701C5.04332 37.6164 5.5388 38.0339 6.06258 38.4226C7.13846 39.2144 8.20019 39.9918 9.21944 40.8988C9.4601 41.1291 9.71491 41.345 9.95557 41.561C9.51672 41.489 9.06372 41.4026 8.63903 41.2587C7.93122 41.0427 7.42159 40.5964 6.64299 40.5676Z" fill="#FEC700"/>
<path d="M35.2204 44.6282C34.5692 43.822 34.0737 42.9151 33.7623 41.9217C33.3518 40.5973 33.1961 39.2152 32.7997 37.9052C32.6156 37.3437 32.5873 36.7391 32.5166 36.1344C32.4599 35.8321 32.5307 35.8033 32.7997 35.645C33.6915 35.1267 34.7391 34.882 35.6734 34.3925C36.8625 33.7591 37.896 32.8377 38.8869 31.9019C40.2034 30.6639 41.4917 29.5266 42.4401 28.0725C42.4685 28.0581 42.4968 28.0293 42.5251 28.0005C43.148 27.2663 43.7001 26.4601 44.4079 25.7979C45.2006 25.0637 45.5687 23.8544 45.9651 22.8755C46.2624 22.1269 46.5172 21.3495 46.772 20.5721C46.4889 18.6142 46.0075 16.7427 45.2997 14.9863C45.2714 15.1735 45.2714 15.375 45.2431 15.5334C45.0874 16.5555 44.96 17.5921 44.9883 18.5998C45.0166 19.1037 45.1582 19.6939 45.0874 20.1978C44.9741 20.8024 44.8184 21.3927 44.6627 21.9973C44.3796 22.9475 43.8133 23.768 43.5019 24.7038C43.4028 24.9629 43.332 25.2077 43.2471 25.4524C43.1196 25.4524 42.9922 25.51 42.9498 25.6684C42.4543 27.0648 41.435 28.1445 40.3592 29.1523C39.3116 30.1312 38.1932 31.3837 36.8909 32.0603C35.6309 32.7225 34.2012 33.0824 32.8563 33.5287C31.9503 33.8166 31.0584 34.2629 30.7045 35.1987C30.2232 36.5087 31.2 37.4445 31.6105 38.5962C32.1202 40.0358 32.4599 41.533 32.9979 42.9583C33.2952 43.7213 33.7482 44.4555 34.2861 45.1465C34.5975 44.9737 34.909 44.8154 35.2204 44.6282Z" fill="#FEC700"/>
<path d="M1.20312 16.3241C1.45794 16.2521 1.6986 16.1658 1.9251 16.065C2.95851 15.6619 3.9353 15.1292 4.91208 14.5966C5.98796 14.0207 7.13462 13.56 8.25297 13.0418C9.27223 12.5667 10.2915 12.0484 11.24 11.4438C12.1884 10.8248 13.0095 9.91779 13.7881 9.0828C15.2745 7.49922 16.7892 6.0308 18.6437 4.90789C22.2253 2.74845 26.5571 2.48931 30.6058 2.34535C31.7525 2.30216 32.8567 2.31656 33.9325 2.48931C32.885 1.97105 31.8091 1.52477 30.7049 1.15046C26.9535 0.848141 23.2021 1.23684 19.6488 2.59009C17.6245 3.36749 15.7417 4.31764 14.0146 5.67089C12.1743 7.12491 10.7445 8.98203 8.66351 10.1049C6.61084 11.2135 4.48739 12.0484 2.47719 13.2289C1.98172 14.2223 1.55703 15.2588 1.20312 16.3241Z" fill="#FEC700"/>
<path d="M46.9578 25.3657C46.9861 24.9194 47.0002 24.4587 47.0002 23.998C46.9294 23.998 46.8587 24.0412 46.802 24.1132C45.6837 25.5384 44.6503 26.9781 43.447 28.3169C42.2012 29.7134 40.8847 31.0666 39.6531 32.4774C39.0585 33.1541 38.464 33.8451 37.8694 34.5217C37.4022 35.0688 36.7369 35.4431 36.2273 35.9325C35.0948 37.0267 34.6984 38.5671 34.8966 40.0787C35.0806 41.4895 35.7884 42.6556 36.7086 43.6777C37.204 43.3322 37.6712 42.9579 38.1667 42.5836C37.8269 41.9502 37.6854 41.4751 37.6995 40.7121C37.7278 40.0643 37.7845 39.3876 37.7986 38.711C37.7986 38.6534 37.8552 38.2647 37.8411 38.2359C37.926 38.0056 38.1384 37.8328 38.3082 37.6601C38.7754 37.2138 39.3133 36.8539 39.7805 36.4076C40.5025 35.7166 41.097 34.8672 41.7482 34.1186C42.994 32.6646 44.3105 31.3833 45.1882 29.6414C45.8536 28.2593 46.349 26.7909 46.9578 25.3657Z" fill="#FEC700"/>
<path d="M44.345 33.8463C43.4956 34.7676 42.4197 35.3723 41.6694 36.4088C40.8767 37.4453 40.6502 38.6402 40.1972 39.8207C40.0556 40.1662 39.9565 40.5837 39.9141 41.0012C40.9616 39.9503 41.9243 38.813 42.7736 37.5893C42.8586 37.4165 42.9435 37.2438 43.0426 37.0854C43.439 36.4808 43.7929 35.8473 44.1893 35.2427C44.4016 34.9404 44.5998 34.6237 44.8405 34.3357C44.9679 34.1774 44.9537 34.0046 44.8688 33.8894C44.7414 33.7167 44.5149 33.6447 44.345 33.8463Z" fill="#FEC700"/>
<path d="M4.67578 9.58791C5.32697 9.19921 5.99232 8.78172 6.67182 8.42182C8.46967 7.47166 10.31 6.5647 12.0654 5.54256C13.4385 4.73637 14.5852 3.58467 15.8451 2.64891C17.2608 1.58359 18.8179 1.25248 20.5025 0.906965C21.989 0.604644 23.4895 0.302322 24.9901 0.0575852C24.5088 0.0287926 24.0133 0 23.5037 0C19.6249 0 15.9442 0.950154 12.7166 2.66331C12.6175 2.76408 12.5042 2.85046 12.3768 2.93684C11.4567 3.65665 10.4232 4.2325 9.40399 4.77956C7.60614 6.14721 6.02063 7.77398 4.67578 9.58791Z" fill="#FEC700"/>
</svg>

<svg xmlns="http://www.w3.org/2000/svg" width="47" height="48" fill="none">
  <path fill="#FEC700" d="M34.9 26.9A12.5 12.5 0 0 0 40 16.8c0-2-1-3.8-2-5.4a12.8 12.8 0 0 0-4.5-4.3c-2-1-4.4-1-6.5-.5-2.3.5-4.7.9-6.8 2a18 18 0 0 0-4.9 4.4c-1.4 1.6-2.7 3.4-4.4 4.7-2.2 1.5-4.2 3-6.8 3.6-.8.2-.6 1.5.2 1.5a13 13 0 0 0 6.5-1.7c1.7-1 3.3-2.3 4.6-3.8 2.4-2.5 4.7-6 8.1-7.1l3.1-.7 3.5-.8c2-.2 3.8 1.2 5 2.8 1.3 1.4 2 3 2 4.9 0 1.7-.6 3.5-1.4 5-1.9 3.3-5.5 4.4-8.7 6a32 32 0 0 1-12.6 3.7c-.4 0-.8.4-1 .8-.8 2.5 1.5 4 3.3 5l2.7 1.5a37 37 0 0 1 7.8 8.6l.3.4a23 23 0 0 0 2.5-.6l-1-1.5c-1.3-2.1-2.5-4.3-4.1-6.1a20.4 20.4 0 0 0-5.6-4.3l-2.6-1.4a2 2 0 0 1-.4-.4c4.2-.5 8.2-2.1 12.2-3.6 2-.7 4.4-1.3 6.3-2.6Z"/>
  <path fill="#FEC700" d="M11.6 25.8c-.7.4-1.4.8-2.1 1-.9.3-1.8.2-2.6 0l-6-.6-.8-.1.1 1.2 3 .5c1.3.3 2.6.4 4 .6 1 .2 2 .1 3.1-.1 2.3-.5 4.4-1.6 6.7-2 2.3-.6 4.7-.7 7-1 3.8-.4 7.8-1.1 10.6-3.8 2.8-2.8 1.5-7-1.2-9.2a5.8 5.8 0 0 0-4.4-1.5c-1.5.1-3 .6-4.3 1.2-2.8 1.4-4.9 4-7.1 6-2.5 2.4-5 4.5-8.4 5.2-3 .7-6.1.7-9.2.6V25.5l4 .7c2.5.2 5-.2 7.4-1.1a19 19 0 0 0 5-3.2c1.5-1.2 2.7-2.6 4-4 2.5-2.5 5.4-5.4 9.1-5.6 4-.2 7.3 5 4.4 8.2-1.7 2-4.7 2.9-7.2 3.2-3.4.5-7-.3-10.3.3-1.8.2-3.3.8-4.8 1.8Z"/>
  <path fill="#FEC700" d="M29.1 20.2c-2.9 1.5-6.3 1.4-9.4 1.6-.3 0-.4.6 0 .6 2.1.3 4.3.5 6.5.1 1.9-.3 4-1 5.5-2.2a4.5 4.5 0 0 0 1-5c-.7-1.4-2.8-1.7-4.2-1.8-2.1 0-3.4 1.4-5 2.7-.8.6-3.6 2.6-2 3.8.5.3 1.2.3 1.8.3 1 0 2-.1 3-.4 1-.2 3.6-1.2 3.4-2.7 0-.4-.5-.6-.7-.2-.6 1.2-1.8 1.6-3 1.9l-2.5.3h-.7c.3-.4.9-.6 1.2-.8l1.5-1.1c1.1-.9 2.2-1.5 3.6-1.6 1-.1 2.2 0 2.2 1.2.1 1.5-1 2.6-2.2 3.3ZM2.2 30.2a19.2 19.2 0 0 0 9.8 1.4c1.3-.2 2.6-.8 3.8-1.4a31 31 0 0 1 3.5-1.3c1.2-.3 2.3-.6 3.4-1.2.3-.2.2-.6 0-.8-1-.3-2.3 0-3.2.3-1.2.3-2.5.8-3.7 1-1.2.2-2.4.5-3.5 1-1.2.3-2 .8-3.2.9-2.3 0-4.5-.7-6.7-1.2l-2-.4.3 1.1 1.5.6ZM5 34c1 0 2.1.2 3.2.4 1.2.3 2 .9 3 1.8.7.9 1.6 1.7 2.3 2.7.8 1 1.7 1.6 2.8 2 1 .5 2 .8 3 1.4.9.6 1.7 1.5 2.3 2.4.3.4 1 .1.9-.4a7.6 7.6 0 0 0-4.4-4.5c-1.1-.4-2.6-.6-3.3-1.7l-2.4-3.3c-1.6-2.2-4-2.5-6.5-2.4-1.4 0-2.7-.2-4-.4l-.6-.1.5 1.3 3.2.7Z"/>
  <path fill="#FEC700" d="M33.2 45.7a18 18 0 0 1-2.7-4.8c-.7-2-1.2-4.1-2.6-5.7a5.4 5.4 0 0 0-2.4-1.5 45 45 0 0 0 8.2-2 16 16 0 0 0 8.7-8.4c1-2 1.3-4 1.5-6.3a12.7 12.7 0 0 0-9.5-12.7c-3-.8-6.4-.4-9.5.3a22 22 0 0 0-9.8 5.2c-1.3 1.2-2.5 2.5-4 3.6A27.7 27.7 0 0 1 1.5 18l-.8.2c-.2.5-.3 1-.3 1.6l2.4-.4A27.2 27.2 0 0 0 14.3 13c1.8-1.7 3-4 5-5.2 2.1-1.3 4.7-1.9 7.1-2.3 2.1-.3 4.2-.4 6.4-.1 3.8.6 6.9 3 8.7 6.4a9.5 9.5 0 0 1 .1 8.3 26.8 26.8 0 0 1-4.5 7.4 16 16 0 0 1-7 4.2c-2.7.8-5.7 1.2-8.5 1.2-.7 0-.9 1.2-.1 1.3l1.6.4c.8.3 1.2.7 1.8 1.2.8.5 1.4 1 1.8 1.9l1.3 2.9 1.6 3.1c.5 1 1 1.9 1.7 2.8l1.9-.8ZM6.6 40.6c1.1 1.1 2.3 2.1 3.6 3h1.6l2.5.3c.3 0 .6.2 1 .4l3.4 2 2.6 1.4 2.2.1h.4l-.5-.5c-1-1-2.2-1.6-3.4-2.2l-3.4-2c-1.2-.7-2.6-1.2-3.8-2-.8-.5-1.3-1.5-2-2.2a21 21 0 0 0-3.3-2.5 9.8 9.8 0 0 0-4.8-1.3l.9 1.5c.3.1.7.3 1 .6L6 38.4 9.2 41l.8.7-1.4-.3c-.7-.3-1.2-.7-2-.7Z"/>
  <path fill="#FEC700" d="M35.2 44.6a8.2 8.2 0 0 1-1.4-2.7l-1-4-.3-1.8c0-.3 0-.3.3-.5.9-.5 2-.7 2.9-1.2 1.2-.6 2.2-1.6 3.2-2.5 1.3-1.2 2.6-2.4 3.5-3.8l.1-.1c.6-.7 1.2-1.5 2-2.2.7-.7 1-2 1.5-3l.8-2.2c-.3-2-.8-3.9-1.5-5.6v.5c-.2 1-.3 2-.3 3.1 0 .5.2 1 0 1.6l-.3 1.8c-.3 1-.9 1.8-1.2 2.7l-.3.8s-.2 0-.3.2a9.1 9.1 0 0 1-2.5 3.5c-1 1-2.2 2.2-3.5 2.9-1.3.6-2.7 1-4 1.4-1 .3-1.8.8-2.2 1.7-.5 1.3.5 2.2 1 3.4L33 43c.3.7.7 1.5 1.3 2.1l1-.5ZM1.2 16.3l.7-.2 3-1.5c1-.6 2.2-1 3.4-1.6 1-.4 2-1 3-1.6.9-.6 1.7-1.5 2.5-2.3 1.5-1.6 3-3 4.8-4.2 3.6-2.2 8-2.4 12-2.6 1.2 0 2.3 0 3.3.2-1-.5-2-1-3.2-1.3A25.2 25.2 0 0 0 14 5.7C12.2 7 10.7 9 8.7 10l-6.2 3.1c-.5 1-1 2-1.3 3.1Z"/>
  <path fill="#FEC700" d="M47 25.4V24l-.2.1c-1.1 1.4-2.1 2.9-3.4 4.2l-3.7 4.2-1.8 2c-.5.6-1.2 1-1.7 1.4a4.8 4.8 0 0 0-1.3 4.2c.2 1.4.9 2.6 1.8 3.6l1.5-1.1c-.4-.6-.5-1.1-.5-1.9l.1-2v-.5l.5-.5 1.5-1.3 2-2.3c1.2-1.4 2.5-2.7 3.4-4.5.7-1.3 1.1-2.8 1.8-4.2ZM44.3 33.8c-.8 1-1.9 1.6-2.6 2.6-.8 1-1 2.2-1.5 3.4l-.3 1.2c1-1 2-2.2 2.9-3.4l.2-.5 1.2-1.9.6-.9c.2-.1.2-.3 0-.4 0-.2-.3-.3-.5 0ZM4.7 9.6l2-1.2c1.8-1 3.6-1.8 5.4-2.9 1.3-.8 2.5-2 3.7-2.9 1.5-1 3-1.3 4.7-1.7L25 .1 23.5 0a23 23 0 0 0-11.1 3l-3 1.8a24 24 0 0 0-4.7 4.8Z"/>
</svg>
